X:433
T:Basket Hornpipe
O:england
C:Jenkins MS
N:dotted
M:2/4
L:1/16
K:G
d4|:c2B2A2G2 F2G2A2B2|G2A2B2c2 d4e2f2|g2f2e2d2 e2d2c2B2|A2G2A2B2 A2d2^c2d2|
c2B2A2G2 F2G2A2B2|G2A2B2c2 d4g2f2|e2d2c2B2 c2A2G2F2|G2F2G2A2 G4d4:|
|:b2a2g2f2 g2d2B2d2|b2a2g2f2 g2d2B2d2|e2g2d2g2 c2g2B2g2|f2e2f2g2 a2f2e2d2|
b2a2g2f2 g2d2B2d2|b2a2g2f2 g2d2B2d2|e2g2f2a2 g2b2g2e2|d2c2B2A2 G4z4:|


